X:325
T:Limerick Lasses, The
M:C|
L:1/8
Q:200
S:THSP
R:reel
Z:
K:D
"D"dBAF DEFD|"G"~G3A BG~E2|"D"dBAF DEFD|"G"GBAG "D"FD~D2:|:
"D"dcde ~f3d|"A"efed cA~A2|"G"(3Bcd ef g2ag|"A"faeg "D"fddA:|:
"G"BdAd BdAd|(3Bcd ef "A"gfed|"G"BdAd Bdag|"A"faeg "D"fd~d2:||
